X:360
T:Fleur-de-Lis
C:John Barrett, 1700
L:1/4
M:2/2
R:Reel
S:Colin Hume's website,  colinhume.com  - chords can also be printed below the stave.
Q:1/2=102
%%MIDI chordname dim 0 3 6 9
%%MIDI ratio 3 1
K:Am
P:A
|: "Am"AE Ae | "Dm"d/c/B/A/ "E7"^G/^F/E | "Am"A>B c/B/c/d/ | "C"ee/d/ c2 |\
"Am"ed/c/ AA | "Dm"dc/B/ "E7"^G/^F/E | "Am"A>B cB | "B7"G^F/E/ "E7"E2 :|
P:B
|: "C"E>^F "G/B"GG | "Am"AB/c/ "G"B/A/G | "Am"c>B "Dm"Ad | "G"d/f/e/d/ "C"c2 |\
"Dm"d/e/f/d/ "G"Bc/d/ | "Am"eA "E7"^G/^F/E | "Am"A>^G A/B/c/d/ | "E7"ee "Am"A2 :|

